!!!COM: Palestrina, Giovanni Perluigi da
!!!OPR: Missa Fratres Ego Enim Accepi
!!!OMD: Benedictus
!!!OTL: First Section
**kern	**kern	**kern	**kern
*Itenor	*Icalto	*Icalto	*Icant
!Tenor	!Altus 2	!Altus 1	!Cantus
*clefGv2	*clefG2	*clefG2	*clefG2
*k[b-]	*k[b-]	*k[b-]	*k[b-]
*G:dor	*G:dor	*G:dor	*G:dor
*M4/2	*M4/2	*M4/2	*M4/2
=1	=1	=1	=1
0r	0a	0r	0r
=2	=2	=2	=2
0r	1d	0r	1r
.	1g	.	[1dd
=3	=3	=3	=3
0r	2g	0r	1dd]
.	2f	.	.
.	2.b-	.	1g
.	4a	.	.
=4	=4	=4	=4
0r	4g	0r	1dd
.	4f	.	.
.	2.g	.	.
.	.	.	2dd
.	4f	.	.
.	2e	.	2cc
=5	=5	=5	=5
0d	2d	0r	2.ff
.	2a	.	.
.	.	.	4ee
.	2f	.	4dd
.	.	.	4cc
.	[2b-	.	[2dd
=6	=6	=6	=6
1G	4b-]	0r	4dd]
.	4a	.	4cc
.	1g	.	2b-
1d	.	.	[1a
.	4f	.	.
.	4e	.	.
=7	=7	=7	=7
2d	2f	1r	1a]
2c	2e	.	.
2.f	1d	[1a	2r
.	.	.	2dd
4e	.	.	.
=8	=8	=8	=8
4d	2r	1a]	2dd
4c	.	.	.
2.d	2d	.	2.ff
.	[1f	1d	.
4c	.	.	4ee
2B-	.	.	[2dd
=9	=9	=9	=9
1A	2f]	1a	2dd]
.	2e	.	2cc
1r	2d	2a	2.ff
.	2d	2f	.
.	.	.	4ee
=10	=10	=10	=10
0r	2.g	2.b-	4dd
.	.	.	4cc
.	.	.	2dd
.	4f	4a	.
.	4g	4g	2.b-
.	4a	4f	.
.	[2b-	[2g	.
.	.	.	4a
=11	=11	=11	=11
0r	4b-]	4g]	1g
.	4a	4f	.
.	1g	2e-	.
.	.	1d	1a
.	2f#	.	.
=12	=12	=12	=12
1r	1g	2r	2.b-
.	.	1g	.
.	.	.	8a
.	.	.	8g
[1d	1r	.	1a
.	.	2f	.
=13	=13	=13	=13
1d]	0r	2b-	1.dd
.	.	2a	.
1G	.	2b-	.
.	.	4a	2dd
.	.	4g	.
=14	=14	=14	=14
1d	0a	4a	1ff
.	.	4g	.
.	.	4f	.
.	.	4e	.
2d	.	2d	2ff
2c	.	2A	2ee
=15	=15	=15	=15
2.f	1d	1a	[0dd
4e	.	.	.
4d	[1a	2.f	.
4c	.	.	.
[2d	.	.	.
.	.	4e	.
=16	=16	=16	=16
4d]	2a]	1d	1dd]
4c	.	.	.
2B-	2g	.	.
[1A	2.cc	1a	2.ee
.	4b-	.	4dd
=17	=17	=17	=17
2A]	4a	1.cc	2ee
.	4g	.	.
2A	2.a	.	2ff
2c	.	.	2ee
.	4g	.	.
2d	2f	2b-	[2dd
=18	=18	=18	=18
1A	1e	1a	2dd]
.	.	.	2cc#
1d	1d	2f#	2dd
.	.	2f#	2a
=19	=19	=19	=19
2r	0r	2.g	2.b-
2G	.	.	.
.	.	4g	4b-
2.d	.	2.f	1a
4c	.	4e	.
=20	=20	=20	=20
2B-	2r	1d	2r
2B-	2b-	.	2dd
2.f	2.a	1r	2.cc
4g	4g	.	4b-
=21	=21	=21	=21
2d	2f	0r	2a
4G	2.b-	.	4dd
4A	.	.	4cc
4B-	.	.	4dd
4c	4a	.	4ee
4d	4f	.	[2ff
4e	4g	.	.
=22	=22	=22	=22
2.f	2.a	0r	4ff]
.	.	.	4ee
.	.	.	4cc
8e	8g	.	4dd
8d	8f	.	.
2c	4g	.	4ee-
.	4a	.	4cc
2B-	[2b-	.	[2dd
=23	=23	=23	=23
1G	4b-]	1r	4dd]
.	4a	.	4cc
.	2.g	.	2.b-
1d	.	2r	.
.	4f	.	4a
.	4f	2d	[2dd
.	8e	.	.
.	8d	.	.
=24	=24	=24	=24
1r	2e	2.g	2dd]
.	2e	.	2cc#
.	.	4g	.
2r	2d	1f	[1dd
2d	2a	.	.
=25	=25	=25	=25
2.g	2.b-	1r	1dd]
4g	4b-	.	.
2f	2a	1cc	2r
2F	2a	.	2ff
=26	=26	=26	=26
2.c	2.g	2.cc	2.ee
4d	4f	4b-	4dd
2A	2e	2a	2cc
4F	[2f	[2cc	4a
4G	.	.	4b-
=27	=27	=27	=27
4A	2f]	4cc]	4cc
4B-	.	8b-	4dd
.	.	8a	.
4c	4e	2g	4ee
4d	4d	.	4ff
2e	2c	2g	2gg
[2f	2A	2a	2cc
=28	=28	=28	=28
4f]	1B-	4d	1dd
4e	.	4e	.
1d	.	4f	.
.	.	4d	.
.	2A	2e	2r
2c	[2a	2e	2a
=29	=29	=29	=29
1B-	2a]	2f	2.dd
.	2g	4e	.
.	.	4d	4dd
1A	2.a	1e	1cc
.	4g	.	.
=30	=30	=30	=30
2.d	2f	2r	2a
.	1f	2d	2b-
4d	.	.	.
1c	.	2.g	2.cc
.	2e	.	.
.	.	4g	4b-
=31	=31	=31	=31
2r	2f	1f	2a
2B-	2b-	.	2dd
2.f	2.a	1r	2.cc
4g	4g	.	4b-
=32	=32	=32	=32
2d	2f	2r	2a
2G	2g	2b-	2dd
[1d	2.f	2.a	[1dd
.	4g	4g	.
=33	=33	=33	=33
2d]	2a	2f	2dd]
2G	1b-	4g	2dd
.	.	4f	.
4B-	.	4d	1dd
4c	.	4e	.
4d	[2a	4f	.
4e	.	4g	.
=34	=34	=34	=34
1f	4a]	4a	2.cc
.	4g	4b-	.
.	4a	2.cc	.
.	4b-	.	4dd
1c	2.cc	.	1ee-
.	.	4b-	.
.	.	4a	.
.	4b-	4g	.
=35	=35	=35	=35
0d	2a	2f#	0dd
.	1g	2g	.
.	.	1a	.
.	2f#	.	.
=36	=36	=36	=36
1G	2.g	2.b-	1dd
.	4g	4b-	.
[1d	[1f#	[1a	[1dd
=37	=37	=37	=37
1d]	1f#]	1a]	1dd]
*-	*-	*-	*-
!!!CDT: 1525/^1526/-1594/2/2
!!!OCY: Italia
!!!AGN: Mass (Parody)
!!!AST: renaissance, vocal
!!!ASW: Motet (Palestrina)
!!!PWK: Masses, Book 8vce
!!!RNB: Cadence finals: D
!!!YOR: Le Opere Complete, v. 30, p. 110
!!!YOO: Rome, Italy: Fratelli Scalera
!!!END: 1992//
!!!EED: John Miller
!!!YEC: Copyright 2000, John Miller
!!!YEN: United States of America
!!!YEM: Rights to all derivative electronic formats reserved.
!!!YEM: Refer to licensing agreement for further details.
!!!YEM: This file must be accompanied by the licensing agreement.
!!!YEM: A copy of the licensing agreement may be found at http://www.music-cog.ohio-state.edu/HumdrumDatabases/Palestrina/license.txt
!!!EMD: converted to Humdrum by Bret Aarden
